Papirus/22x22/apps/crossover.svg

<?xml version="1.0" encoding="UTF-8" standalone="no"?>
<svg xmlns="http://www.w3.org/2000/svg" height="22" width="22" version="1">
 <rect transform="matrix(0,-1,-1,0,0,0)" rx="9.995" ry="9.991" height="19.982" width="19.991" y="-20.99" x="-20.99" fill="#ccc"/>
 <path opacity=".2" fill="#fff" d="m11 1.0001c-5.535 0-9.991 4.458-9.991 9.9955 0 0.08382-0.002 0.16657 0 0.24989 0.1322-5.4205 4.54-9.7454 9.991-9.7454s9.859 4.3248 9.991 9.7454c0.002-0.08332 0-0.16606 0-0.24989 0-5.537-4.456-9.995-9.991-9.995z"/>
 <path opacity=".2" d="m1.0058 11.245c-0.002 0.084-0.0058 0.166-0.0058 0.25 0 5.543 4.46 10.005 10 10.005s10-4.462 10-10.005c0-0.08404-0.004-0.16658-0.006-0.25011-0.132 5.4254-4.538 9.7544-9.994 9.7544s-9.862-4.3289-9.994-9.7544z"/>
 <path opacity=".1" d="m12.023 3.9922c0.48 0.9201 0.86 1.7835 1.166 2.6016-0.882-0.0716-1.707-0.1105-2.447-0.0977-6.3618 0.1095-7.4277 3.3393-3.2166 9.6819-0.7773 0.115-1.6081 0.201-2.5254 0.234 11.664 1.981 14.806-1.064 9.463-9.1093 0.776-0.115 1.621-0.1899 2.537-0.2226-1.067-0.1811-2.048-0.3109-2.973-0.4082-0.589-0.8474-1.237-1.7278-2.004-2.6797zm1.4648 3.4883c1.448 4.6745-0.216 7.5155-4.9919 8.5235-1.4487-4.675 0.2191-7.5149 4.9919-8.5235zm-5.1618 8.5625c-0.20387 0.04048-0.4121 0.07733-0.62695 0.11133 0.21532-0.03441 0.42419-0.07022 0.62695-0.11133zm-0.3731 0.771c0.588 0.84388 1.2604 1.7381 2.0234 2.6855-0.4775-0.91641-0.86442-1.7803-1.1699-2.5957-0.2705-0.02201-0.56902-0.05983-0.85352-0.08984z"/>
 <g transform="matrix(.5 0 0 .50023 -1 -2.0104)">
  <path fill="#f37421" d="m26.046 11c16.94 21.016 12.258 29.291-14.046 24.827 17.66-0.631 22.342-8.907 14.046-24.827"/>
  <path fill="#2183f3" d="m23.484 16.006c-12.729 0.219-14.861 6.682-6.427 19.371 0.675-0.101 1.324-0.217 1.939-0.35-3.532-11.37 2.134-17.322 17.004-17.853-4.932-0.837-9.104-1.227-12.516-1.168zm-5.576 20.627c1.176 1.687 2.519 3.473 4.045 5.367-0.955-1.832-1.729-3.558-2.34-5.188-0.541-0.044-1.136-0.119-1.705-0.179z"/>
 </g>
</svg>

<?xml version="1.0" encoding="UTF-8" standalone="no"?>
<svg xmlns="http://www.w3.org/2000/svg" height="22" width="22" version="1">
 <circle r="10" cy="11.5" cx="11" style="opacity:0.2"/>
 <circle style="fill:#cccccc" cx="11" cy="11" r="10"/>
 <path d="M 12.023,3.9922 C 12.503,4.9123 12.883,5.7757 13.189,6.5938 12.307,6.5222 11.482,6.4833 10.742,6.4961 4.3802,6.6056 3.3143,9.835 7.5254,16.178 6.7481,16.293 5.9173,16.379 5,16.412 16.664,18.393 19.806,15.348 14.463,7.3027 15.239,7.1877 16.084,7.1128 17,7.0801 15.933,6.899 14.952,6.7692 14.027,6.6719 13.438,5.8245 12.79,4.9441 12.023,3.9922 Z M 13.488,7.4805 C 14.936,12.155 13.272,14.996 8.4959,16.004 7.0472,11.329 8.715,8.4891 13.488,7.4805 Z M 8.326,16.043 C 8.1221,16.083 7.9139,16.12 7.699,16.154 7.9144,16.12 8.1232,16.084 8.326,16.043 Z M 7.9529,16.814 C 8.5409,17.658 9.213,18.552 9.976,19.5 9.499,18.583 9.112,17.719 8.8064,16.904 8.5359,16.882 8.2374,16.844 7.9529,16.814 Z" style="opacity:0.1"/>
 <path style="fill:#f37421" d="M 12.023,3.4921 C 20.493,14.005 18.152,18.144 5,15.911 13.83,15.596 16.171,11.456 12.023,3.4921"/>
 <path style="fill:#2183f3" d="M 10.742,5.9963 C 4.3775,6.1058 3.3115,9.3388 7.5285,15.686 7.866,15.636 8.1905,15.578 8.498,15.511 6.732,9.8235 9.565,6.8462 17,6.5806 14.534,6.1619 12.448,5.9668 10.742,5.9963 Z M 7.954,16.315 C 8.542,17.158 9.2135,18.052 9.9765,18.999 9.499,18.083 9.112,17.219 8.8065,16.404 8.536,16.382 8.2385,16.345 7.954,16.315 Z"/>
 <path style="opacity:0.2;fill:#ffffff" d="M 11,1 A 10,10 0 0 0 1,11 10,10 0 0 0 1.0098,11.293 10,10 0 0 1 11,1.5 10,10 0 0 1 20.99,11.207 10,10 0 0 0 21,11 10,10 0 0 0 11,1 Z"/>
</svg>
